SF_Symbols/dot.circle.and.cursorarrow.svg

<?xml version="1.0" encoding="UTF-8"?>
<svg xmlns="http://www.w3.org/2000/svg" xmlns:xlink="http://www.w3.org/1999/xlink" width="24" height="24" viewBox="0 0 24 24" version="1.1">
<g id="surface1">
<path style=" stroke:none;fill-rule:nonzero;fill:rgb(100%,100%,100%);fill-opacity:1;" d="M 11.613281 21.769531 C 12.34375 21.769531 13.046875 21.691406 13.730469 21.53125 C 14.417969 21.371094 15.066406 21.144531 15.675781 20.855469 C 15.640625 20.714844 15.609375 20.546875 15.582031 20.34375 C 15.5625 20.140625 15.546875 19.925781 15.53125 19.699219 C 15.523438 19.476562 15.519531 19.257812 15.519531 19.042969 C 14.9375 19.347656 14.316406 19.582031 13.65625 19.75 C 13.003906 19.917969 12.324219 20 11.613281 20 C 10.386719 20 9.234375 19.769531 8.167969 19.3125 C 7.097656 18.855469 6.15625 18.222656 5.34375 17.417969 C 4.539062 16.605469 3.90625 15.664062 3.449219 14.59375 C 2.996094 13.523438 2.769531 12.375 2.769531 11.144531 C 2.769531 9.917969 2.996094 8.765625 3.449219 7.699219 C 3.90625 6.628906 4.539062 5.6875 5.34375 4.875 C 6.148438 4.0625 7.085938 3.429688 8.15625 2.980469 C 9.226562 2.519531 10.375 2.292969 11.605469 2.292969 C 12.832031 2.292969 13.984375 2.519531 15.050781 2.980469 C 16.121094 3.429688 17.0625 4.0625 17.875 4.875 C 18.6875 5.6875 19.324219 6.628906 19.78125 7.699219 C 20.238281 8.765625 20.46875 9.917969 20.46875 11.144531 C 20.46875 11.242188 20.460938 11.339844 20.449219 11.4375 C 20.433594 11.535156 20.417969 11.628906 20.394531 11.71875 L 22 13.332031 C 22.078125 12.984375 22.136719 12.632812 22.175781 12.269531 C 22.21875 11.902344 22.238281 11.527344 22.238281 11.144531 C 22.238281 9.695312 21.960938 8.328125 21.40625 7.050781 C 20.851562 5.765625 20.082031 4.636719 19.105469 3.65625 C 18.125 2.675781 16.992188 1.910156 15.707031 1.355469 C 14.421875 0.796875 13.054688 0.519531 11.605469 0.519531 C 10.152344 0.519531 8.785156 0.796875 7.5 1.355469 C 6.222656 1.910156 5.09375 2.675781 4.113281 3.65625 C 3.140625 4.636719 2.378906 5.765625 1.824219 7.050781 C 1.265625 8.328125 0.988281 9.695312 0.988281 11.144531 C 0.988281 12.597656 1.265625 13.964844 1.824219 15.25 C 2.378906 16.527344 3.144531 17.65625 4.125 18.636719 C 5.105469 19.613281 6.234375 20.382812 7.511719 20.9375 C 8.796875 21.492188 10.164062 21.769531 11.613281 21.769531 Z M 11.625 14.34375 C 12.207031 14.34375 12.742188 14.203125 13.230469 13.917969 C 13.714844 13.625 14.101562 13.234375 14.386719 12.75 C 14.675781 12.265625 14.824219 11.726562 14.824219 11.136719 C 14.824219 10.550781 14.675781 10.019531 14.386719 9.542969 C 14.101562 9.054688 13.714844 8.671875 13.230469 8.386719 C 12.742188 8.09375 12.207031 7.949219 11.625 7.949219 C 11.035156 7.949219 10.496094 8.09375 10.011719 8.386719 C 9.53125 8.671875 9.144531 9.054688 8.855469 9.542969 C 8.5625 10.019531 8.417969 10.550781 8.417969 11.136719 C 8.417969 11.726562 8.5625 12.265625 8.855469 12.75 C 9.144531 13.234375 9.535156 13.625 10.019531 13.917969 C 10.507812 14.203125 11.042969 14.34375 11.625 14.34375 Z M 16.40625 19.613281 C 16.40625 19.753906 16.449219 19.859375 16.53125 19.925781 C 16.613281 19.996094 16.714844 20.027344 16.832031 20.019531 C 16.953125 20.019531 17.050781 19.980469 17.136719 19.894531 L 18.730469 18.300781 L 20.511719 22.699219 C 20.550781 22.796875 20.617188 22.863281 20.707031 22.90625 C 20.796875 22.949219 20.890625 22.953125 20.988281 22.917969 L 22.03125 22.5 C 22.121094 22.457031 22.179688 22.390625 22.207031 22.292969 C 22.242188 22.195312 22.234375 22.097656 22.1875 22 L 20.324219 17.667969 L 22.5625 17.582031 C 22.695312 17.578125 22.796875 17.535156 22.875 17.457031 C 22.957031 17.382812 23 17.292969 23 17.1875 C 23.007812 17.082031 22.964844 16.984375 22.875 16.886719 L 17.175781 11.03125 C 17.046875 10.898438 16.898438 10.863281 16.738281 10.925781 C 16.585938 10.984375 16.507812 11.109375 16.5 11.300781 Z M 16.40625 19.613281 "/>
</g>
</svg>

<svg xmlns="http://www.w3.org/2000/svg" width="24" height="24"><path style="stroke:none;fill-rule:nonzero;fill:#fff;fill-opacity:1" d="M11.613 21.77c.73 0 1.434-.079 2.117-.239a9.722 9.722 0 0 0 1.946-.676c-.04-.168-.07-.34-.094-.511-.02-.215-.035-.43-.05-.645a18.386 18.386 0 0 1-.012-.656 8.327 8.327 0 0 1-1.864.707 8.196 8.196 0 0 1-2.043.25 8.696 8.696 0 0 1-3.445-.688 8.977 8.977 0 0 1-2.824-1.894 8.977 8.977 0 0 1-1.895-2.824 8.79 8.79 0 0 1-.68-3.45c0-1.226.227-2.378.68-3.445a8.977 8.977 0 0 1 1.895-2.824A8.549 8.549 0 0 1 8.156 2.98c1.07-.46 2.219-.687 3.45-.687 1.226 0 2.378.227 3.445.687a8.804 8.804 0 0 1 2.824 1.895 8.902 8.902 0 0 1 1.906 2.824c.461 1.09.696 2.262.688 3.446 0 .195-.028.386-.074.574L22 13.332c.078-.348.137-.7.176-1.062.043-.368.062-.743.062-1.125 0-1.45-.277-2.817-.832-4.094a10.874 10.874 0 0 0-5.699-5.696A10.206 10.206 0 0 0 11.605.52c-1.453 0-2.82.277-4.105.835a10.776 10.776 0 0 0-3.387 2.301c-.972.98-1.734 2.11-2.289 3.395a10.117 10.117 0 0 0-.836 4.094c0 1.453.278 2.82.836 4.105a10.92 10.92 0 0 0 5.688 5.688c1.297.558 2.691.84 4.101.832Zm.012-7.426c.582 0 1.117-.14 1.605-.426a3.311 3.311 0 0 0 1.157-1.168c.289-.484.437-1.023.437-1.613 0-.586-.148-1.117-.437-1.594a3.157 3.157 0 0 0-1.157-1.156 3.054 3.054 0 0 0-1.605-.438c-.59 0-1.129.145-1.613.438-.48.285-.867.668-1.157 1.156a2.979 2.979 0 0 0-.437 1.594c0 .59.145 1.129.437 1.613.29.484.68.875 1.165 1.168.488.285 1.043.43 1.605.426Zm4.781 5.27c0 .14.043.245.125.312.082.07.184.101.301.094.121 0 .219-.04.305-.125L18.73 18.3l1.782 4.398a.38.38 0 0 0 .476.219l1.043-.418a.32.32 0 0 0 .176-.207.364.364 0 0 0-.02-.293l-1.863-4.332 2.238-.086a.44.44 0 0 0 .313-.125.36.36 0 0 0 .125-.27c.008-.105-.035-.203-.125-.3l-5.7-5.856c-.128-.133-.277-.168-.437-.105-.152.058-.23.183-.238.375Zm0 0"/></svg>
